icon-svg/panel-glass-door-close.svg

<?xml version="1.0" encoding="UTF-8"?>
<svg width="24px" height="24px" viewBox="0 0 24 24" version="1.1" fill="#44739e" xmlns="http://www.w3.org/2000/svg" xmlns:xlink="http://www.w3.org/1999/xlink">
            <path d="M 22.699219,2.140625 10.720703,2.1699219 V 22.169922 H 1.3691406 v 0.759766 H 22.699219 Z m -11.31836,0.4726562 h 10.46875 V 22.841797 h -10.46875 z m 0,0 V 22.841797 h 10.46875 V 2.6132812 Z m 3.75,2.3671876 h 2.96875 V 19.089844 h -2.96875 z m 0.289063,0.2792968 V 18.779297 h 2.410156 V 5.2597656 Z m 0.439453,0.4707032 h 1.5 V 18.339844 h -1.5 z"></path>

</svg>

<svg xmlns="http://www.w3.org/2000/svg" fill="#44739e" viewBox="0 0 24 24"><path d="M22.6992 2.1406 10.7207 2.17v20H1.3691v.7598h21.3301Zm-11.3183.4727h10.4687v20.2285H11.381zm0 0v20.2285h10.4687V2.6133Zm3.75 2.3672h2.9687v14.1093H15.131zm.289.2793v13.5195h2.4102V5.2598Zm.4395.4707h1.5v12.6093h-1.5z"/></svg>
